app/dist/common/images/myers-industries.svg

<svg height="18" viewBox="0 0 18 18" width="18" xmlns="http://www.w3.org/2000/svg"><path d="m0 0h18v18h-18z" fill="#f0f3fa"/><path d="m11.25 5c.95 0 1.75.65 1.75 2.14v3.86h-1v-3.8c0-.94-.71-1.2-1.29-1.2-.53 0-1.21.43-1.21 1.47v3.53h-1v-3.8c0-.94-.52-1.2-1.1-1.2-.52 0-1.4.43-1.4 1.47v3.53h-1v-6h1v1h.04c.36-.56.87-1 1.9-1 .64 0 1.23.3 1.53.96.42-.55.94-.96 1.78-.96z" fill="#003058"/><path d="m5 12h8l-.82 1h-7.18z" fill="#a7c241"/></svg>

<!-- by TradingView --><svg width="18" height="18" viewBox="0 0 18 18" xmlns="http://www.w3.org/2000/svg"><path fill="#F0F3FA" d="M0 0h18v18H0z"/><path d="M11.25 5C12.2 5 13 5.65 13 7.14V11h-1V7.2c0-.94-.71-1.2-1.29-1.2-.53 0-1.21.43-1.21 1.47V11h-1V7.2c0-.94-.52-1.2-1.1-1.2C6.88 6 6 6.43 6 7.47V11H5V5h1v1h.04c.36-.56.87-1 1.9-1 .64 0 1.23.3 1.53.96.42-.55.94-.96 1.78-.96Z" fill="#003058"/><path d="M5 12h8l-.82 1H5v-1Z" fill="#A7C241"/></svg>
